X:72
T: DIE MAENNER SIND VERAENDERLICH
N: F0170
O: Europa, Mitteleuropa, Deutschland
R: Liebes - Lied, Spott, Moral
M: 2/4
L: 1/8
K: A
e | efde | cdB
c | AABB | E2z
E | FGAB | cde
e | ^dfBd | e2z
E | GGzG | BBzB | ddz
e | c2B2 | A2z2 | f2eG | A2z

@@@ Tune index: 5503
